X:1
T:Oige ja Vasemba
L:1/8
M:2/4
I:linebreak $
K:C
V:1 treble 
V:1
 G/G/ |"C" Gc"G" Bd |"C" cB"G" AG/G/ |"C" Gc"G" Bd |"C" c2 z G/G/ |"C" Gc"G" Bd |"C" cB"G" AG/G/ | %7
"C" Gc"G" Bd |"C" c2 z2 |]"Am" e2 e>d | cB A2 |$"Dm" d2 d>c |"G" BA G2 |"E7" e2 e>d |"Am" cB A2 | %15
"D7" d2 d/c/B/A/ |"G" GG G |] %17
